Papirus-Dark/16x16/actions/go-parent-folder.svg

<?xml version="1.0" encoding="UTF-8" standalone="no"?>
<svg xmlns="http://www.w3.org/2000/svg" width="16" height="16" viewBox="0 0 16 16">
 <defs>
  <style type="text/css" id="current-color-scheme">
   .ColorScheme-Text { color:#d3dae3; }
  </style>
 </defs>
 <path style="fill:currentColor;opacity:1" class="ColorScheme-Text" d="M 1.84375 1.0097656 C 1.56245 1.0565656 1 1.2597656 1 2.0097656 L 1 13.009766 C 1 13.009766 1 14.009766 2 14.009766 L 10.671875 14.009766 L 10.671875 12.328125 C 10.273875 12.644125 9.70285 12.610953 9.34375 12.251953 L 8.6367188 11.544922 C 8.2464188 11.153922 8.2464188 10.520859 8.6367188 10.130859 L 9.5859375 9.1816406 L 11.464844 7.3027344 C 11.648844 7.1185344 11.898203 7.0133656 12.158203 7.0097656 C 12.428203 7.0061656 12.687906 7.1118344 12.878906 7.3027344 L 14.757812 9.1816406 L 15 9.4238281 L 15 4.0097656 C 15 3.0097656 14 3.0097656 14 3.0097656 L 9 3.0097656 L 7 1.0097656 L 2 1.0097656 C 2 1.0097656 1.93745 0.99413563 1.84375 1.0097656 z M 12.171875 8.0097656 L 10.292969 9.8886719 L 9.34375 10.837891 L 10.050781 11.544922 L 11 10.595703 L 11.671875 9.9238281 L 11.671875 14.009766 L 12.671875 14.009766 L 12.671875 9.9238281 L 13.34375 10.595703 L 14.292969 11.544922 L 15 10.837891 L 14.050781 9.8886719 L 12.171875 8.0097656 z"/>
</svg>

<?xml version="1.0" encoding="UTF-8" standalone="no"?>
<!--Created with Inkscape (http://www.inkscape.org/)-->
<svg id="svg7384" xmlns:rdf="http://www.w3.org/1999/02/22-rdf-syntax-ns#" style="enable-background:new" xmlns="http://www.w3.org/2000/svg" height="16" width="16" version="1.1" xmlns:cc="http://creativecommons.org/ns#" xmlns:dc="http://purl.org/dc/elements/1.1/">
 <metadata id="metadata90">
  <rdf:RDF>
   <cc:Work rdf:about="">
    <dc:format>image/svg+xml</dc:format>
    <dc:type rdf:resource="http://purl.org/dc/dcmitype/StillImage"/>
   </cc:Work>
  </rdf:RDF>
 </metadata>
 <defs id="defs7386">
 </defs>
 <g id="layer12" transform="translate(-525 99.01)">
  <path id="path4247" opacity="1" fill="#d3dae3" style="fill:#d3dae3;text-indent:0;block-progression:tb;text-decoration-line:none;enable-background:accumulate;text-transform:none" transform="translate(525 -99.01)" d="m1.8438 1.0098c-0.2813 0.0468-0.8438 0.25-0.8438 1v11s0 1 1 1h8.672v-1.682c-0.398 0.316-0.9691 0.283-1.3282-0.076l-0.7071-0.707c-0.3903-0.391-0.3903-1.024 0-1.414l0.9492-0.9494 1.8791-1.8789c0.184-0.1842 0.433-0.2893 0.693-0.2929 0.27-0.0036 0.53 0.102 0.721 0.2929l1.879 1.8789 0.242 0.2422v-5.414c0-1-1-1-1-1h-5l-2-2h-5s-0.0625-0.01563-0.1562 0zm10.328 7l-1.879 1.8789-0.9492 0.9493 0.7072 0.707 0.949-0.949 0.672-0.6722v4.0862h1v-4.0862l0.672 0.6722 0.949 0.949 0.707-0.707-0.949-0.9493-1.879-1.8789z"/>
 </g>
</svg>
